Resources/Public/Icons/mugce-icon-gallery.svg

<svg enable-background="new 0 0 150 150" version="1.1" viewBox="0 0 150 150" xml:space="preserve" xmlns="http://www.w3.org/2000/svg">

	
		<path d="m187.46 38.42v-20.25c0-6.17 5.03-11.19 11.19-11.19h48.36v33.02c0 10.28 8.36 18.65 18.65 18.65h33.7v72.74c0 6.17-5.02 11.19-11.19 11.19h-30.62c-3.62 0-3.52 7.46 0 7.46h30.62c10.28 0 18.65-8.37 18.65-18.65v-78.03l-54.54-53.85h-53.62c-10.28 0-18.64 8.37-18.64 18.65v20.25c0 2.6 7.44 2.77 7.44 0.01zm68.75-22.65 33.63 33.2h-24.11c-5.25 0-9.53-4.27-9.53-9.52v-23.68z"/>
	

<path d="m133.84 4.31h-72.68c-8.92 0-16.16 7.23-16.16 16.15v64.62c0 8.92 7.24 16.16 16.16 16.16h72.68c8.93 0 16.16-7.24 16.16-16.16v-64.62c0-8.92-7.23-16.15-16.16-16.15zm-57.19 7.86c7.23 0 13.1 5.86 13.1 13.1 0 7.23-5.86 13.1-13.1 13.1-7.23 0-13.1-5.86-13.1-13.1s5.87-13.1 13.1-13.1zm-15.49 64.83 15.02-24.1 9.25 14.84 21.33-34.21 27.08 43.47h-72.68z"/>

	<path d="M36.87,43H24.71v66.83c0,6.7,5.45,12.16,12.16,12.16h60.76v-12.16H36.87V43z"/>


	<path d="M12.56,67.3H0.41v66.85c0,6.7,5.45,12.15,12.15,12.15h60.77v-12.15H12.56V67.3z"/>

</svg>

<?xml version="1.0" encoding="utf-8"?>
<!-- Generator: Adobe Illustrator 24.2.1, SVG Export Plug-In . SVG Version: 6.00 Build 0)  -->
<svg version="1.1" id="Ebene_1" xmlns="http://www.w3.org/2000/svg" xmlns:xlink="http://www.w3.org/1999/xlink" x="0px" y="0px"
	 viewBox="0 0 150 150" style="enable-background:new 0 0 150 150;" xml:space="preserve">
<g>
	<g>
		<path d="M187.46,38.42c0-2.75,0-20.25,0-20.25c0-6.17,5.03-11.19,11.19-11.19h48.36V40c0,10.28,8.36,18.65,18.65,18.65h33.7v53.54
			v0.82v18.38c0,6.17-5.02,11.19-11.19,11.19c0,0-27.01,0-30.62,0c-3.62,0-3.52,7.46,0,7.46c3.51,0,30.62,0,30.62,0
			c10.28,0,18.65-8.37,18.65-18.65v-18.38l0,0V53.36L252.28-0.49h-53.62c-10.28,0-18.64,8.37-18.64,18.65c0,0,0,17.67,0,20.25
			C180.02,41.01,187.46,41.18,187.46,38.42z M256.21,15.77l33.63,33.2h-24.11c-5.25,0-9.53-4.27-9.53-9.52V15.77z"/>
	</g>
</g>
<path d="M133.84,4.31H61.16C52.24,4.31,45,11.54,45,20.46v64.62c0,8.92,7.24,16.16,16.16,16.16h72.68c8.93,0,16.16-7.24,16.16-16.16
	V20.46C150,11.54,142.77,4.31,133.84,4.31z M76.65,12.17c7.23,0,13.1,5.86,13.1,13.1c0,7.23-5.86,13.1-13.1,13.1
	c-7.23,0-13.1-5.86-13.1-13.1C63.55,18.03,69.42,12.17,76.65,12.17z M61.16,77l15.02-24.1l9.25,14.84l21.33-34.21L133.84,77H61.16z"
	/>
<g>
	<path d="M36.87,43H24.71v66.83c0,6.7,5.45,12.16,12.16,12.16h60.76v-12.16H36.87V43z"/>
</g>
<g>
	<path d="M12.56,67.3H0.41v66.85c0,6.7,5.45,12.15,12.15,12.15h60.77v-12.15H12.56V67.3z"/>
</g>
</svg>
